icon-themes/breeze_svg/cmd/lc_ungroup.svg

<svg viewBox="0 0 24 24" xmlns="http://www.w3.org/2000/svg"><path d="m14 4v4.09375h6v-4.09375zm-8 1v1 2h1v-2h6v-1zm9 0h4v2h-4zm-1 5v4.09375h6v-4.09375zm1 1h4v2h-4zm-9 4v2 .09375.90625h7v-1h-6v-2zm8 1v4.09375h6v-4.09375zm1 1h4v2h-4z" fill="#4d4d4d"/><path d="m8.1666667 9-1.6666667 1.666667-1.6666667-1.666667-.8333333.8333328 1.6666666 1.6666672-1.6666666 1.666668.8333333.833332 1.6666667-1.666666 1.6666667 1.666666.8333333-.833332-1.6666666-1.666668 1.6666666-1.6666672z" fill="#da4453"/></svg>

<svg viewBox="0 0 24 24" xmlns="http://www.w3.org/2000/svg">
  <path
     style="fill:#4d4d4d"
     d="m 14,4 v 4.09375 h 6 V 4 Z M 6,5 V 6 8 H 7 V 6 h 6 V 5 Z m 9,0 h 4 v 2 h -4 z m -1,5 v 4.09375 h 6 V 10 Z m 1,1 h 4 v 2 H 15 Z M 6,15 V 17 17.09375 18 h 7 V 17 H 7 v -2 z m 8,1 v 4.09375 h 6 V 16 Z m 1,1 h 4 v 2 h -4 z"
     />
  <path
     style="fill:#da4453"
     d="M 8.1666667,9 6.5,10.666667 4.8333333,9 4,9.8333328 5.6666666,11.5 4,13.166668 4.8333333,14 6.5,12.333334 8.1666667,14 9,13.166668 7.3333334,11.5 9,9.8333328 Z"
     />
</svg>
